assets/fonts/icomoon.svg

<?xml version="1.0" standalone="no"?>
<!DOCTYPE svg PUBLIC "-//W3C//DTD SVG 1.1//EN" "http://www.w3.org/Graphics/SVG/1.1/DTD/svg11.dtd" >
<svg xmlns="http://www.w3.org/2000/svg">
<metadata>Generated by IcoMoon</metadata>
<defs>
<font id="icomoon" horiz-adv-x="1024">
<font-face units-per-em="1024" ascent="960" descent="-64" />
<missing-glyph horiz-adv-x="1024" />
<glyph unicode="&#x20;" horiz-adv-x="512" d="" />
<glyph unicode="&#xe900;" glyph-name="card-right" horiz-adv-x="4363" d="M3561.739 425.744h-3561.739v66.783h3561.739v-66.783zM4363.13 451.504l-811.885-478.934v957.865l811.885-478.931zM4231.689 451.504l-613.661 361.999v-724.001l613.661 362.002z" />
<glyph unicode="&#xe901;" glyph-name="menu" horiz-adv-x="1178" d="M0 960h1177.6v-128h-1177.6v128zM0 524.8h1177.6v-128h-1177.6v128zM0 89.6h1177.6v-128h-1177.6v128z" />
<glyph unicode="&#xe902;" glyph-name="close" d="M95.273 960l876.515-876.515-95.273-95.273-876.515 876.515 95.273 95.273zM876.539 960l-876.515-876.515 95.273-95.273 876.515 876.515-95.273 95.273z" />
<glyph unicode="&#xe903;" glyph-name="tris-right" horiz-adv-x="922" d="M870.4 422.4l-806.4-465.575v931.15l806.4-465.575zM563.2 422.4l-345.6 199.532v-399.064l345.6 199.533z" />
<glyph unicode="&#xe904;" glyph-name="clock" d="M512 960c-283.006 0-512-229.014-512-512 0-283.005 229.016-512 512-512 283.005 0 512 229.012 512 512 0 283.006-229.018 512-512 512zM512 15.997c-238.786 0-432 193.234-432 432.003 0 238.786 193.232 432 432 432 238.785 0 432.003-193.23 432.003-432 0-238.785-193.234-432.003-432.003-432.003zM732.581 362.303l-180.581 108.345v297.352c0 22.092-17.907 40-40 40s-40-17.907-40-40v-320c0-14.050 7.372-27.070 19.42-34.3l200.002-120c18.938-11.366 43.514-5.222 54.875 13.722 11.366 18.944 5.228 43.514-13.716 54.881z" />
<glyph unicode="&#xe905;" glyph-name="tris-down" horiz-adv-x="1138" d="M597.333-7.111l517.305 896h-1034.611l517.306-896zM597.333 334.222l-221.702 384h443.405l-221.703-384z" />
<glyph unicode="&#xe906;" glyph-name="tris-up" horiz-adv-x="1280" d="M672 960l581.969-1008h-1163.937l581.969 1008zM672 576l-249.414-432h498.83l-249.416 432z" />
<glyph unicode="&#xe907;" glyph-name="arrow-right" horiz-adv-x="6758" d="M0 499.2v-153.6h5900.8v-388.775l806.4 465.575-806.4 465.575v-388.775h-5900.8zM6092.8 245.038v354.724l307.2-177.362-307.2-177.362z" />
<glyph unicode="&#xe908;" glyph-name="arrow-left" horiz-adv-x="5018" d="M806.4 499.2v388.775l-806.4-465.575 806.4-465.575v388.775h4160v153.6h-4160zM614.4 599.762v-354.724l-307.2 177.362 307.2 177.362z" />
<glyph unicode="&#xe909;" glyph-name="arrow-mini-right" horiz-adv-x="1741" d="M0 499.2v-153.6h883.2v-388.775l806.4 465.575-806.4 465.576v-388.776h-883.2zM1075.2 245.038v354.725l307.2-177.362-307.2-177.363z" />
<glyph unicode="&#xe90a;" glyph-name="youtube" horiz-adv-x="1583" d="M1452.339 862.492c-126.203 92.968-406.658 97.508-661.066 97.508s-534.86-4.54-661.064-97.508c-126.203-92.969-130.209-294.4-130.209-414.484s4.006-321.516 130.209-414.484c126.203-92.972 406.655-97.524 661.064-97.524v0.019c254.408 0 534.863 4.534 661.066 97.505 126.203 92.968 130.206 294.4 130.206 414.484s-4.003 321.516-130.206 414.484zM1042.013 420.923l0.047-0.061-429.907-221.513c-2.308-1.611-4.824-2.898-7.532-3.889l-0.529-0.279-0.033 0.109c-3.478-1.208-7.179-1.984-11.090-1.984-18.253 0-33.045 14.317-33.045 31.951v446.465c0 17.648 14.808 31.95 33.045 31.95 5.144 0 9.968-1.239 14.311-3.269l0.017 0.016 434.744-225.355c9.374-5.64 15.677-15.619 15.677-27.069-0.019-11.451-6.33-21.43-15.704-27.070z" />
<glyph unicode="&#xe90b;" glyph-name="fa" horiz-adv-x="478" d="M317.731 734.195v-102.4h160.136l-20.335-183.795h-139.801v-512h-218.599v512h-99.132v183.795h99.132v102.4c0 0-17.793 194.297 160.136 225.805h218.599v-165.416h-99.132c0 2.626-55.921 5.252-61.004-60.389z" />
<glyph unicode="&#xe90c;" glyph-name="search" d="M409.6 140.8c94.654 0 181.811 32.108 251.167 86.021l275.83-275.825 72.407 72.407-275.825 275.83c53.914 69.356 86.021 156.513 86.021 251.167 0 226.216-183.383 409.6-409.6 409.6s-409.6-183.384-409.6-409.6c0-226.217 183.384-409.6 409.6-409.6zM716.8 550.4c0-169.661-137.539-307.2-307.2-307.2s-307.2 137.539-307.2 307.2c0 169.662 137.538 307.2 307.2 307.2s307.2-137.538 307.2-307.2z" />
<glyph unicode="&#xe90d;" glyph-name="arrow-mini-left" horiz-adv-x="1741" d="M768 499.2h921.6v-153.6h-921.6v153.6zM0 422.4l806.4 465.575v-931.15l-806.4 465.575zM307.2 422.4l345.6-199.533v399.064l-345.6-199.532z" />
<glyph unicode="&#xe90e;" glyph-name="vk" horiz-adv-x="1792" d="M876.787-46.4h105.6c0 0 33.6 4.8 48 19.2s14.4 48 14.4 48c0 0 0 139.2 62.4 158.4s148.8-134.4 235.2-196.8c67.2-43.2 115.2-33.6 115.2-33.6l235.2 4.8c0 0 120 9.6 62.4 105.6-4.8 9.6-33.6 72-172.8 201.6-144 134.403-124.8 115.203 48 350.403 105.6 144 148.8 230.4 134.4 268.8-14.4 33.6-91.2 24-91.2 24h-264c0 0-19.2 4.8-33.6-4.8s-24-28.8-24-28.8c0 0-43.2-110.4-96-206.4-115.2-196.8-163.2-211.2-182.4-196.8-43.2 24-33.6 110.4-33.6 172.8 0 192 28.8 273.6-57.6 292.8-28.8 4.8-48 9.6-124.8 14.4-96 0-172.8 0-216-24-28.798-14.4-52.798-48-38.398-48 19.2 0 57.598-9.6 76.798-38.4 28.8-38.4 24-120 24-120s14.4-225.6-38.4-254.4c-33.598-19.2-81.598 19.2-187.198 201.6-52.8 91.2-96 192-96 192s0 19.2-14.4 28.8c-19.2 14.4-38.4 14.4-38.4 14.4h-249.6c0 0-38.4 0-52.8-19.2-14.4-14.4 0-43.2 0-43.2s196.8-456 417.6-686.403c201.598-211.2 431.998-196.8 431.998-196.8z" />
<glyph unicode="&#xe90f;" glyph-name="phone" horiz-adv-x="1046" d="M892.137 660.805l-97.674 97.682-167.453-167.455 69.795-69.795-251.138-251.028-69.795 69.795-167.344-167.455 97.68-97.68c30.658-30.658 72.54-47.403 111.57-47.403s80.912 16.768 111.57 47.403l362.71 362.71c61.504 61.395 61.504 161.826 0.104 223.248zM872.632 457.174l-362.712-362.706c-25.137-25.142-55.77-39.029-92.057-39.029s-66.92 13.99-92.057 39.029l-78.167 78.167 128.315 128.315 69.795-69.795 290.064 290.168-69.795 69.795 128.315 128.315 78.167-78.167c50.279-50.279 50.279-133.94 0.111-184.114zM794.481 770.715l103.809-103.838c64.811-64.811 64.813-170.756-0.106-235.54l-362.708-362.71c-32.241-32.237-76.344-49.96-117.709-49.96-41.384 0-85.467 17.7-117.709 49.96l-103.818 103.818 179.657 179.77 69.798-69.798 238.825 238.723-69.79 69.79 179.768 179.77zM639.336 590.945l69.798-69.795-263.438-263.322-69.79 69.79-155.054-155.158 91.523-91.525c29.054-29.052 68.737-44.867 105.413-44.867s76.36 15.815 105.411 44.867l362.712 362.712c58.11 58.006 58.114 152.921 0.102 210.933l-91.517 91.523-155.162-155.162zM794.373 731.684l84.326-84.326c53.664-53.664 53.668-142.839 0.109-196.405l-362.712-362.706c-26.637-26.643-59.452-41.57-98.213-41.57-38.772 0-71.581 15.055-98.185 41.561l-84.332 84.33 140.628 140.63 69.795-69.79 277.754 277.857-69.79 69.79 140.63 140.63zM678.349 591.054l69.798-69.795-302.36-302.463-69.798 69.798-116.022-116.025 72.004-72.004c23.646-23.549 52.128-36.499 85.91-36.499 33.786 0 62.266 12.853 85.899 36.471l362.712 362.706c46.754 46.761 46.761 124.932-0.109 171.801l-72.011 72.013-116.025-116.025zM295.354 677.769c-73.668-73.67-73.668-193.117 0-266.787l-36.898-36.898c-94.049 94.049-94.049 246.535 0 340.588s246.537 94.049 340.59 0l-36.9-36.898c-73.668 73.67-193.117 73.67-266.787 0zM230.676 742.272c-109.365-109.365-109.365-286.652 0-396.011l-36.9-36.9c-129.744 129.744-129.744 340.087 0 469.83s340.087 129.744 469.83 0l-36.898-36.898c-109.365 109.361-286.652 109.361-396.011 0z" />
<glyph unicode="&#xe910;" glyph-name="tw" horiz-adv-x="1331" d="M1197.409 786.725l133.791 25.203c0 0-110.377-116.567-133.791-126.018-3.343-56.708 0-75.611 0-75.611-254.198-1030.196-1197.409-573.385-1197.409-573.385 344.506-6.298 371.265 126.019 371.265 126.019-200.684 28.355-240.82 151.224-240.82 151.224 70.239-31.503 107.031 25.201 107.031 25.201-214.062 53.56-187.304 248.888-187.304 248.888 36.792-31.504 96.997-44.106 130.444-47.257-20.068 25.204-220.752 255.186-100.342 371.753 0 0 150.513-252.036 538.499-274.089l26.757 6.301c-6.687 18.903-6.687 34.655-6.687 53.558 0 144.921 123.756 261.488 277.612 261.488 187.305 0 227.441-100.814 227.441-100.814l133.791 75.611c0 3.15-13.379-122.868-80.276-148.071z" />
<glyph unicode="&#xe911;" glyph-name="minus" horiz-adv-x="5632" d="M3249.689 359.552h-912.981v154.761h912.981v-154.761z" />
<glyph unicode="&#xe912;" glyph-name="plus" d="M1012.587 375.954h-381.814v-402.271h-168.182v402.271h-380.682v157.955h380.682v402.273h168.182v-402.273h381.814v-157.955z" />
<glyph unicode="&#xe913;" glyph-name="location" horiz-adv-x="808" d="M398.155-27.761l29.098 25.411c244.685 213.655 369.058 400.212 369.058 564.195 0 232.228-181.253 398.155-398.156 398.155s-398.155-165.927-398.155-398.155c0-163.983 124.371-350.54 369.058-564.195l29.097-25.411zM398.105 90.101c-207.633 187.128-309.676 345.695-309.676 471.744 0 181.532 139.979 309.676 309.676 309.676s309.678-128.144 309.678-309.676c0-126.048-102.044-284.616-309.678-471.744zM398.105 783.042c-122.164 0-221.197-99.033-221.197-221.197s99.034-221.198 221.197-221.198c122.164 0 221.199 99.034 221.199 221.198s-99.035 221.197-221.199 221.197zM265.438 561.844c0 73.298 59.42 132.718 132.718 132.718s132.718-59.42 132.718-132.718c0-73.298-59.42-132.718-132.718-132.718s-132.718 59.42-132.718 132.718z" />
<glyph unicode="&#xe914;" glyph-name="arrow-bottom" horiz-adv-x="155" d="M69.814 60.121v899.879h23.273v-899.879h-23.273zM81.451-56.242l-70.542 122.182h141.083l-70.542-122.182zM81.451-9.697l30.232 52.364h-60.464l30.232-52.364z" />
<glyph unicode="&#xe915;" glyph-name="arrow-up" horiz-adv-x="155" d="M93.087 843.636v-899.879h-23.273v899.879h23.273zM81.451 960l70.542-122.182h-141.083l70.542 122.182zM81.451 913.455l-30.232-52.364h60.464l-30.232 52.364z" />
<glyph unicode="&#xe916;" glyph-name="arrow-med-right" horiz-adv-x="2662" d="M1843.2 345.6h-1843.2v153.6h1843.2v-153.6zM2611.2 422.4l-806.4-465.575v931.15l806.4-465.575zM2304 422.4l-345.6 199.532v-399.064l345.6 199.533z" />
<glyph unicode="&#xe917;" glyph-name="menu-right" horiz-adv-x="1959" d="M1113.043 425.744h-1113.043v66.783h1113.043v-66.783zM1914.519 451.504l-811.885-478.934v957.865l811.885-478.931zM1783.082 451.504l-613.665 361.999v-724.001l613.665 362.002z" />
<glyph unicode="&#xe918;" glyph-name="arrow-down" horiz-adv-x="155" d="M69.822 60.121v899.879h23.273v-899.879h-23.273zM81.458-56.242l-70.542 122.182h141.083l-70.542-122.182zM81.458-9.697l30.232 52.364h-60.464l30.232-52.364z" />
<glyph unicode="&#xe919;" glyph-name="Group-459" horiz-adv-x="155" d="M93.095 843.636v-899.879h-23.273v899.879h23.273zM81.458 960l70.542-122.182h-141.083l70.542 122.182zM81.458 913.455l-30.232-52.364h60.464l-30.232 52.364z" />
<glyph unicode="&#xe91a;" glyph-name="download" horiz-adv-x="1182" d="M40.731 940.308h1100.076l-550.040-879.403-550.036 879.403zM253.993 822.154l336.774-538.44 336.772 538.44h-673.546zM1024 54.154v-118.154h-866.464v118.154h866.464z" />
<glyph unicode="&#xe91b;" glyph-name="share" d="M823.999 302.138c-58.898 0-111.416-28.067-145.007-71.44l-281.304 157.131c6.591 18.922 10.206 39.335 10.206 60.385 0 21.264-3.615 41.459-10.419 60.599l281.089 156.916c33.382-43.588 86.114-71.867 145.225-71.867 100.784 0 183.069 82.073 183.069 183.070s-82.076 183.070-183.069 183.070c-100.998 0-183.073-82.073-183.073-183.070 0-21.262 3.615-41.675 10.418-60.598l-280.875-156.917c-33.382 43.801-86.113 71.867-145.222 71.867-100.784 0-183.070-82.073-183.070-183.068 0-100.998 82.286-183.069 183.282-183.069 59.11 0 111.84 28.276 145.435 72.076l281.091-157.126c-6.807-19.14-10.632-39.762-10.632-61.026 0-100.784 82.071-183.069 183.069-183.069s183.069 82.071 183.069 183.069c0 100.998-82.285 183.069-183.283 183.069zM823.999 902.379c69.316 0 125.663-56.345 125.663-125.661s-56.347-125.661-125.663-125.661c-69.316 0-125.658 56.345-125.658 125.661s56.556 125.661 125.658 125.661zM225.25 322.551c-69.315 0-125.661 56.347-125.661 125.663 0 69.315 56.346 125.66 125.661 125.66s125.661-56.345 125.661-125.66c0-69.316-56.558-125.663-125.661-125.663zM823.999-6.38c-69.316 0-125.658 56.347-125.658 125.663s56.342 125.663 125.658 125.663c69.316 0 125.663-56.347 125.663-125.663s-56.347-125.663-125.663-125.663z" />
<glyph unicode="&#xe91c;" glyph-name="reset" d="M214.685 704h194.915v-102.4h-358.4v358.4h102.4v-167.442c88.326 106.897 214.823 167.442 358.4 167.442 282.772 0 512-229.23 512-512 0-282.772-229.228-512-512-512-282.77 0-512 229.228-512 512h102.4c0-226.213 183.384-409.6 409.6-409.6 226.213 0 409.6 183.387 409.6 409.6 0 226.216-183.387 409.6-409.6 409.6-122.553 0-227.659-55.229-297.315-153.6z" />
</font></defs></svg>

<svg xmlns="http://www.w3.org/2000/svg"><defs><font id="icomoon" horiz-adv-x="1024"><font-face units-per-em="1024" ascent="960" descent="-64"/><glyph horiz-adv-x="512"/><glyph unicode="" glyph-name="card-right" horiz-adv-x="4363" d="M3561.739 425.744H0v66.783h3561.739v-66.783zm801.391 25.76L3551.245-27.43v957.865l811.885-478.931zm-131.441 0l-613.661 361.999V89.502l613.661 362.002z"/><glyph unicode="" glyph-name="menu" horiz-adv-x="1178" d="M0 960h1177.6V832H0v128zm0-435.2h1177.6v-128H0v128zM0 89.6h1177.6v-128H0v128z"/><glyph unicode="" glyph-name="close" d="M95.273 960L971.788 83.485l-95.273-95.273L0 864.727 95.273 960zm781.266 0L.024 83.485l95.273-95.273 876.515 876.515L876.539 960z"/><glyph unicode="" glyph-name="tris-right" horiz-adv-x="922" d="M870.4 422.4L64-43.175v931.15L870.4 422.4zm-307.2 0L217.6 621.932V222.868l345.6 199.533z"/><glyph unicode="" glyph-name="clock" d="M512 960C228.994 960 0 730.986 0 448 0 164.995 229.016-64 512-64c283.005 0 512 229.012 512 512 0 283.006-229.018 512-512 512zm0-944.003C273.214 15.997 80 209.231 80 448c0 238.786 193.232 432 432 432 238.785 0 432.003-193.23 432.003-432 0-238.785-193.234-432.003-432.003-432.003zm220.581 346.306L552 470.648V768c0 22.092-17.907 40-40 40s-40-17.907-40-40V448c0-14.05 7.372-27.07 19.42-34.3l200.002-120c18.938-11.366 43.514-5.222 54.875 13.722 11.366 18.944 5.228 43.514-13.716 54.881z"/><glyph unicode="" glyph-name="tris-down" horiz-adv-x="1138" d="M597.333-7.111l517.305 896H80.027l517.306-896zm0 341.333l-221.702 384h443.405l-221.703-384z"/><glyph unicode="" glyph-name="tris-up" horiz-adv-x="1280" d="M672 960L1253.969-48H90.032L672.001 960zm0-384L422.586 144h498.83L672 576z"/><glyph unicode="" glyph-name="arrow-right" horiz-adv-x="6758" d="M0 499.2V345.6h5900.8V-43.175L6707.2 422.4l-806.4 465.575V499.2H0zm6092.8-254.162v354.724L6400 422.4l-307.2-177.362z"/><glyph unicode="" glyph-name="arrow-left" horiz-adv-x="5018" d="M806.4 499.2v388.775L0 422.4 806.4-43.175V345.6h4160v153.6h-4160zm-192 100.562V245.038L307.2 422.4l307.2 177.362z"/><glyph unicode="" glyph-name="arrow-mini-right" horiz-adv-x="1741" d="M0 499.2V345.6h883.2V-43.175L1689.6 422.4 883.2 887.976V499.2H0zm1075.2-254.162v354.725l307.2-177.362-307.2-177.363z"/><glyph unicode="" glyph-name="youtube" horiz-adv-x="1583" d="M1452.339 862.492C1326.136 955.46 1045.681 960 791.273 960s-534.86-4.54-661.064-97.508C4.006 769.523 0 568.092 0 448.008S4.006 126.492 130.209 33.524C256.412-59.448 536.864-64 791.273-64v.019c254.408 0 534.863 4.534 661.066 97.505 126.203 92.968 130.206 294.4 130.206 414.484s-4.003 321.516-130.206 414.484zm-410.326-441.569l.047-.061-429.907-221.513c-2.308-1.611-4.824-2.898-7.532-3.889l-.529-.279-.033.109c-3.478-1.208-7.179-1.984-11.09-1.984-18.253 0-33.045 14.317-33.045 31.951v446.465c0 17.648 14.808 31.95 33.045 31.95 5.144 0 9.968-1.239 14.311-3.269l.017.016 434.744-225.355c9.374-5.64 15.677-15.619 15.677-27.069-.019-11.451-6.33-21.43-15.704-27.07z"/><glyph unicode="" glyph-name="fa" horiz-adv-x="478" d="M317.731 734.195v-102.4h160.136L457.532 448H317.731V-64H99.132v512H0v183.795h99.132v102.4S81.339 928.492 259.268 960h218.599V794.584h-99.132c0 2.626-55.921 5.252-61.004-60.389z"/><glyph unicode="" glyph-name="search" d="M409.6 140.8c94.654 0 181.811 32.108 251.167 86.021l275.83-275.825 72.407 72.407-275.825 275.83C787.093 368.589 819.2 455.746 819.2 550.4c0 226.216-183.383 409.6-409.6 409.6S0 776.616 0 550.4c0-226.217 183.384-409.6 409.6-409.6zm307.2 409.6c0-169.661-137.539-307.2-307.2-307.2S102.4 380.739 102.4 550.4c0 169.662 137.538 307.2 307.2 307.2s307.2-137.538 307.2-307.2z"/><glyph unicode="" glyph-name="arrow-mini-left" horiz-adv-x="1741" d="M768 499.2h921.6V345.6H768v153.6zM0 422.4l806.4 465.575v-931.15L0 422.4zm307.2 0l345.6-199.533v399.064L307.2 422.399z"/><glyph unicode="" glyph-name="vk" horiz-adv-x="1792" d="M876.787-46.4h105.6s33.6 4.8 48 19.2 14.4 48 14.4 48 0 139.2 62.4 158.4 148.8-134.4 235.2-196.8c67.2-43.2 115.2-33.6 115.2-33.6l235.2 4.8s120 9.6 62.4 105.6c-4.8 9.6-33.6 72-172.8 201.6-144 134.403-124.8 115.203 48 350.403 105.6 144 148.8 230.4 134.4 268.8-14.4 33.6-91.2 24-91.2 24h-264s-19.2 4.8-33.6-4.8-24-28.8-24-28.8-43.2-110.4-96-206.4c-115.2-196.8-163.2-211.2-182.4-196.8-43.2 24-33.6 110.4-33.6 172.8 0 192 28.8 273.6-57.6 292.8-28.8 4.8-48 9.6-124.8 14.4-96 0-172.8 0-216-24-28.798-14.4-52.798-48-38.398-48 19.2 0 57.598-9.6 76.798-38.4 28.8-38.4 24-120 24-120s14.4-225.6-38.4-254.4c-33.598-19.2-81.598 19.2-187.198 201.6-52.8 91.2-96 192-96 192s0 19.2-14.4 28.8c-19.2 14.4-38.4 14.4-38.4 14.4h-249.6s-38.4 0-52.8-19.2c-14.4-14.4 0-43.2 0-43.2s196.8-456 417.6-686.403C646.387-60.8 876.787-46.4 876.787-46.4z"/><glyph unicode="" glyph-name="phone" horiz-adv-x="1046" d="M892.137 660.805l-97.674 97.682L627.01 591.032l69.795-69.795-251.138-251.028-69.795 69.795-167.344-167.455 97.68-97.68c30.658-30.658 72.54-47.403 111.57-47.403s80.912 16.768 111.57 47.403l362.71 362.71c61.504 61.395 61.504 161.826.104 223.248zm-19.505-203.631L509.92 94.468c-25.137-25.142-55.77-39.029-92.057-39.029s-66.92 13.99-92.057 39.029l-78.167 78.167L375.954 300.95l69.795-69.795 290.064 290.168-69.795 69.795 128.315 128.315 78.167-78.167c50.279-50.279 50.279-133.94.111-184.114zm-78.151 313.541L898.29 666.877c64.811-64.811 64.813-170.756-.106-235.54L535.476 68.627c-32.241-32.237-76.344-49.96-117.709-49.96-41.384 0-85.467 17.7-117.709 49.96L196.24 172.445l179.657 179.77 69.798-69.798L684.52 521.14l-69.79 69.79L794.498 770.7zm-155.145-179.77l69.798-69.795-263.438-263.322-69.79 69.79L220.852 172.46l91.523-91.525c29.054-29.052 68.737-44.867 105.413-44.867s76.36 15.815 105.411 44.867l362.712 362.712c58.11 58.006 58.114 152.921.102 210.933l-91.517 91.523-155.162-155.162zm155.037 140.739l84.326-84.326c53.664-53.664 53.668-142.839.109-196.405L516.096 88.247c-26.637-26.643-59.452-41.57-98.213-41.57-38.772 0-71.581 15.055-98.185 41.561l-84.332 84.33 140.628 140.63 69.795-69.79 277.754 277.857-69.79 69.79 140.63 140.63zm-116.024-140.63l69.798-69.795-302.36-302.463-69.798 69.798-116.022-116.025 72.004-72.004c23.646-23.549 52.128-36.499 85.91-36.499 33.786 0 62.266 12.853 85.899 36.471l362.712 362.706c46.754 46.761 46.761 124.932-.109 171.801l-72.011 72.013-116.025-116.025zm-382.995 86.715c-73.668-73.67-73.668-193.117 0-266.787l-36.898-36.898c-94.049 94.049-94.049 246.535 0 340.588s246.537 94.049 340.59 0l-36.9-36.898c-73.668 73.67-193.117 73.67-266.787 0zm-64.678 64.503c-109.365-109.365-109.365-286.652 0-396.011l-36.9-36.9c-129.744 129.744-129.744 340.087 0 469.83s340.087 129.744 469.83 0l-36.898-36.898c-109.365 109.361-286.652 109.361-396.011 0z"/><glyph unicode="" glyph-name="tw" horiz-adv-x="1331" d="M1197.409 786.725l133.791 25.203s-110.377-116.567-133.791-126.018c-3.343-56.708 0-75.611 0-75.611C943.211-419.897 0 36.914 0 36.914c344.506-6.298 371.265 126.019 371.265 126.019-200.684 28.355-240.82 151.224-240.82 151.224 70.239-31.503 107.031 25.201 107.031 25.201C23.414 392.918 50.172 588.246 50.172 588.246c36.792-31.504 96.997-44.106 130.444-47.257-20.068 25.204-220.752 255.186-100.342 371.753 0 0 150.513-252.036 538.499-274.089l26.757 6.301c-6.687 18.903-6.687 34.655-6.687 53.558C638.843 843.433 762.599 960 916.455 960c187.305 0 227.441-100.814 227.441-100.814l133.791 75.611c0 3.15-13.379-122.868-80.276-148.071z"/><glyph unicode="" glyph-name="minus" horiz-adv-x="5632" d="M3249.689 359.552h-912.981v154.761h912.981V359.552z"/><glyph unicode="" glyph-name="plus" d="M1012.587 375.954H630.773V-26.317H462.591v402.271H81.909v157.955h380.682v402.273h168.182V533.909h381.814V375.954z"/><glyph unicode="" glyph-name="location" horiz-adv-x="808" d="M398.155-27.761L427.253-2.35c244.685 213.655 369.058 400.212 369.058 564.195C796.311 794.073 615.058 960 398.155 960S0 794.073 0 561.845C0 397.862 124.371 211.305 369.058-2.35l29.097-25.411zm-.05 117.862C190.472 277.229 88.429 435.796 88.429 561.845c0 181.532 139.979 309.676 309.676 309.676s309.678-128.144 309.678-309.676c0-126.048-102.044-284.616-309.678-471.744zm0 692.941c-122.164 0-221.197-99.033-221.197-221.197s99.034-221.198 221.197-221.198c122.164 0 221.199 99.034 221.199 221.198s-99.035 221.197-221.199 221.197zM265.438 561.844c0 73.298 59.42 132.718 132.718 132.718s132.718-59.42 132.718-132.718c0-73.298-59.42-132.718-132.718-132.718s-132.718 59.42-132.718 132.718z"/><glyph unicode="" glyph-name="arrow-bottom" horiz-adv-x="155" d="M69.814 60.121V960h23.273V60.121H69.814zM81.451-56.242L10.909 65.94h141.083L81.45-56.242zm0 46.545l30.232 52.364H51.219L81.451-9.697z"/><glyph unicode="" glyph-name="arrow-up" horiz-adv-x="155" d="M93.087 843.636V-56.243H69.814v899.879h23.273zM81.451 960l70.542-122.182H10.91L81.452 960zm0-46.545l-30.232-52.364h60.464l-30.232 52.364z"/><glyph unicode="" glyph-name="arrow-med-right" horiz-adv-x="2662" d="M1843.2 345.6H0v153.6h1843.2V345.6zm768 76.8L1804.8-43.175v931.15L2611.2 422.4zm-307.2 0l-345.6 199.532V222.868L2304 422.401z"/><glyph unicode="" glyph-name="menu-right" horiz-adv-x="1959" d="M1113.043 425.744H0v66.783h1113.043v-66.783zm801.476 25.76L1102.634-27.43v957.865l811.885-478.931zm-131.437 0l-613.665 361.999V89.502l613.665 362.002z"/><glyph unicode="" glyph-name="arrow-down" horiz-adv-x="155" d="M69.822 60.121V960h23.273V60.121H69.822zM81.458-56.242L10.916 65.94h141.083L81.457-56.242zm0 46.545l30.232 52.364H51.226L81.458-9.697z"/><glyph unicode="" glyph-name="Group-459" horiz-adv-x="155" d="M93.095 843.636V-56.243H69.822v899.879h23.273zM81.458 960L152 837.818H10.917L81.459 960zm0-46.545l-30.232-52.364h60.464l-30.232 52.364z"/><glyph unicode="" glyph-name="download" horiz-adv-x="1182" d="M40.731 940.308h1100.076L590.767 60.905 40.731 940.308zm213.262-118.154l336.774-538.44 336.772 538.44H253.993zm770.007-768V-64H157.536V54.154H1024z"/><glyph unicode="" glyph-name="share" d="M823.999 302.138c-58.898 0-111.416-28.067-145.007-71.44L397.688 387.829a183.672 183.672 0 0110.206 60.385c0 21.264-3.615 41.459-10.419 60.599l281.089 156.916c33.382-43.588 86.114-71.867 145.225-71.867 100.784 0 183.069 82.073 183.069 183.07s-82.076 183.07-183.069 183.07c-100.998 0-183.073-82.073-183.073-183.07 0-21.262 3.615-41.675 10.418-60.598L370.259 559.417c-33.382 43.801-86.113 71.867-145.222 71.867-100.784 0-183.07-82.073-183.07-183.068 0-100.998 82.286-183.069 183.282-183.069 59.11 0 111.84 28.276 145.435 72.076l281.091-157.126c-6.807-19.14-10.632-39.762-10.632-61.026 0-100.784 82.071-183.069 183.069-183.069s183.069 82.071 183.069 183.069c0 100.998-82.285 183.069-183.283 183.069zm0 600.241c69.316 0 125.663-56.345 125.663-125.661s-56.347-125.661-125.663-125.661-125.658 56.345-125.658 125.661 56.556 125.661 125.658 125.661zM225.25 322.551c-69.315 0-125.661 56.347-125.661 125.663 0 69.315 56.346 125.66 125.661 125.66s125.661-56.345 125.661-125.66c0-69.316-56.558-125.663-125.661-125.663zM823.999-6.38c-69.316 0-125.658 56.347-125.658 125.663s56.342 125.663 125.658 125.663 125.663-56.347 125.663-125.663S893.315-6.38 823.999-6.38z"/><glyph unicode="" glyph-name="reset" d="M214.685 704H409.6V601.6H51.2V960h102.4V792.558C241.926 899.455 368.423 960 512 960c282.772 0 512-229.23 512-512 0-282.772-229.228-512-512-512C229.23-64 0 165.228 0 448h102.4c0-226.213 183.384-409.6 409.6-409.6 226.213 0 409.6 183.387 409.6 409.6 0 226.216-183.387 409.6-409.6 409.6-122.553 0-227.659-55.229-297.315-153.6z"/></font></defs></svg>
